assets/employmentBg.svg

<svg xmlns="http://www.w3.org/2000/svg" width="5763" height="1161" fill="none" xmlns:v="https://vecta.io/nano"><g fill="#ffc856"><path d="M1920 0h1920v1161H1920z"/><path d="M0 0h1976v1161H0zm3782 0h1978v1161H3782z"/></g><path d="M2302 1161L2891.43 0H5763V1161H2302Z" fill="#007550" style="mix-blend-mode:overlay"/><path d="M2067.66 623l-24.73-24.732-24.17 24.163-18.33-18.336 24.16-24.164-24.6-24.6 17.34-17.34 24.6 24.6 24.17-24.164 18.33 18.337-24.16 24.163L2085 605.66 2067.66 623z" fill="#fff" style="mix-blend-mode:overlay" opacity=".2"/><path d="M3603.06 870.088l-24.6-24.608-24.05 24.042-18.24-18.243 24.04-24.042-24.46-24.466 17.25-17.253 24.47 24.465 24.04-24.04 18.24 18.243-24.04 24.042 24.6 24.607-17.26 17.254z" fill="#f1b527" fill-opacity=".35"/><g fill="#ffc856"><circle cx="2120" cy="963" r="24" style="mix-blend-mode:multiply" opacity=".3"/><circle cx="1929.5" cy="219.5" r="205.5" style="mix-blend-mode:multiply" opacity=".2"/></g><circle cx="3676" cy="437" r="24" fill="#fabe31"/></svg>

<svg width="5763" height="1161" viewBox="0 0 5763 1161" fill="none" xmlns="http://www.w3.org/2000/svg">
<rect x="1920" width="1920" height="1161" fill="#FFC856"/>
<rect width="1976" height="1161" fill="#FFC856"/>
<rect x="3782" width="1978" height="1161" fill="#FFC856"/>
<g style="mix-blend-mode:overlay">
<path d="M2302 1161L2891.43 0H5763V1161H2302Z" fill="#007550"/>
</g>
<g style="mix-blend-mode:overlay" opacity="0.2">
<path d="M2067.66 623L2042.93 598.268L2018.76 622.431L2000.43 604.095L2024.59 579.931L2000 555.341L2017.34 538L2041.93 562.59L2066.1 538.426L2084.43 556.763L2060.27 580.926L2085 605.659L2067.66 623Z" fill="white"/>
</g>
<path d="M3603.06 870.088L3578.46 845.48L3554.41 869.522L3536.17 851.279L3560.21 827.237L3535.75 802.771L3553 785.518L3577.47 809.983L3601.51 785.942L3619.75 804.185L3595.71 828.227L3620.32 852.834L3603.06 870.088Z" fill="#F1B527" fill-opacity="0.35"/>
<g style="mix-blend-mode:multiply" opacity="0.3">
<circle cx="2120" cy="963" r="24" fill="#FFC856"/>
</g>
<g style="mix-blend-mode:multiply" opacity="0.2">
<circle cx="1929.5" cy="219.5" r="205.5" fill="#FFC856"/>
</g>
<circle cx="3676" cy="437" r="24" fill="#FABE31"/>
</svg>
